X: 7869
T:St Kilda Wedding
R:Reel
O:Scotland
M:4/4
K:D
D/D/D DD/D/ DF AF|E/E/E FD B,/B,/B, A,B,|\
D/D/D DD/D/ DF AF | B3A BA Bd :|
|:\
dc de dA Ad|Bc dc B2AG|\
FA Bc dc Bd|Ad Fd E2DB,|
Dd dc dA Ad|Bc dc B2 AG|FA Bc dB Bd|1 \
AF dF E2D2:|2 B/B/B dc BA Bd |]
